icon/ir/hd.svg

<svg width="24" height="24" stroke-width="1.5" fill="none" xmlns="http://www.w3.org/2000/svg"><path d="M3 7v5m0 5v-5m0 0h7m0 0V7m0 5v5M13 12V7c4 0 8 0 8 5s-4 5-8 5v-5Z" stroke="currentColor" stroke-linecap="round" stroke-linejoin="round"/></svg>

<svg stroke-width="1.5" viewBox="0 0 24 24" fill="none" xmlns="http://www.w3.org/2000/svg" height="1em" width="1em">
  <path d="M3 7V12M3 17L3 12M3 12H10M10 12L10 7M10 12L10 17" stroke="currentColor" stroke-linecap="round" stroke-linejoin="round"/>
  <path d="M13 12V7C17 7 21 7 21 12C21 17 17 17 13 17V12Z" stroke="currentColor" stroke-linecap="round" stroke-linejoin="round"/>
</svg>
